!!! OTL: Berkowitz557
!!! Chapter: 1
!!! Section: V
!!! Page: 141
!!! Mode: 
!!! Encoder: DJB
**kern
*staff1
*I"Piano
=1-
*clefC4
*k[]
*C:
*M3/4
8C/L
8D/J
8E-/L
8F/J
4B-\
=2
2A-\
8r
8F#/
=3
4B\
4A\
8r
8G/
=4
4c\
4B\
4F#/
=5
8B\L
8A\J
4E/
4F#/
=6
2C#/
4r
=7
8BB/L
8E/J
8A/L
8G/J
4D/
=8
8D#/L
8G#/J
8c#\L
8d\J
4A\
=9
!!linebreak:original
8B/L
8F#/J
8G/L
8D/J
8AA/L
8BB/J
=10
2C#/
4r
==
*-
